X:1

T:Barring of the Door, The

M:6/8

L:1/8

S:Aird, vol. II (1785)

Z:AK/Fiddler’s Companion

K:G

D | G2G G2G | GAG G2G | G2g g2f | e3d3 | def g2e | dcB A2D | GAB A2G | E3G2 :|

                       

BARRINGTON HORNPIPE. English, Hornpipe. England, Northumberland. G Major. Standard tuning. AABB. From A Tutor for the Northumbrian Small‑pipes by J.W. Fenwick, published in the late 1800's; composed by Thomas Todd. Raven (English Country Dance Tunes), 1984; pg. 98.

